X:1
T:Jesse James-polkett
C:efter [[Personer/Peter Hedlund]]
R:Polkett
Z:Patrik Månsson, 2008-12-03
M:2/4
L:1/8
K:C
|: C2 EG | c2 c>B | cB AG | G2 (E2 | E)C EG | c2 c>B | cB A_B |
(B4 | B2) B>c | d2 d^c | d2 dc | B2 (G2 | G2) GA | B2 B>B | AG D_E | 
Ec BA | GC EG | c2 c>B | cB  AG | G2 (E2 | E)E Gc | e2 e>e |
dc Bc | d2 (A2 | A2) AB | c2 cB1/2c1/2 | dc Bc | e2 e^d1/2e1/2 | fe ^de |
A2 A>c | BG AB | cG EG | C z z2 :|

